img/icons/yts.svg

<?xml version="1.0" encoding="UTF-8" standalone="no"?>
<!-- Generator: Adobe Illustrator 16.0.0, SVG Export Plug-In . SVG Version: 6.00 Build 0)  -->

<svg
   xmlns:dc="http://purl.org/dc/elements/1.1/"
   xmlns:cc="http://creativecommons.org/ns#"
   xmlns:rdf="http://www.w3.org/1999/02/22-rdf-syntax-ns#"
   xmlns:svg="http://www.w3.org/2000/svg"
   xmlns="http://www.w3.org/2000/svg"
   xmlns:sodipodi="http://sodipodi.sourceforge.net/DTD/sodipodi-0.dtd"
   xmlns:inkscape="http://www.inkscape.org/namespaces/inkscape"
   version="1.1"
   id="Layer_1"
   x="0px"
   y="0px"
   width="120.93578"
   height="38"
   viewBox="-6 -2.501 120.93578 38"
   enable-background="new -6 -2.501 92 38"
   xml:space="preserve"
   inkscape:version="0.91 r13725"
   sodipodi:docname="logo-YTS.svg"
   inkscape:export-xdpi="90"
   inkscape:export-ydpi="90"><metadata
   id="metadata3363"><rdf:RDF><cc:Work
       rdf:about=""><dc:format>image/svg+xml</dc:format><dc:type
         rdf:resource="http://purl.org/dc/dcmitype/StillImage" /><dc:title></dc:title></cc:Work></rdf:RDF></metadata><defs
   id="defs3361" /><sodipodi:namedview
   pagecolor="#ffffff"
   bordercolor="#666666"
   borderopacity="1"
   objecttolerance="10"
   gridtolerance="10"
   guidetolerance="10"
   inkscape:pageopacity="0"
   inkscape:pageshadow="2"
   inkscape:window-width="1920"
   inkscape:window-height="1017"
   id="namedview3359"
   showgrid="false"
   inkscape:zoom="2"
   inkscape:cx="-39.563"
   inkscape:cy="19"
   inkscape:window-x="-8"
   inkscape:window-y="-8"
   inkscape:window-maximized="1"
   inkscape:current-layer="g3337"
   inkscape:snap-text-baseline="false"
   fit-margin-top="0"
   fit-margin-left="0"
   fit-margin-right="0"
   fit-margin-bottom="0" />
<g
   id="g3337"
   transform="translate(-0.313,7.2479246e-8)">
	<path
   d="M 15.541,32.485 C 5.162,32.485 -3.254,24.07 -3.254,13.69 -3.254,6.795 0.462,0.769 5.999,-2.501 -0.892,0.624 -5.687,7.555 -5.687,15.614 c 0,10.981 8.902,19.885 19.885,19.885 10.477,0 19.057,-8.106 19.824,-18.387 -1.61,8.745 -9.27,15.373 -18.481,15.373 z"
   id="path3339"
   inkscape:connector-curvature="0"
   style="fill:#6ac045" />
	<circle
   cx="19.497"
   cy="23.160999"
   id="circle3341"
   r="5.006"
   style="fill:#6ac045" />
	<circle
   cx="6.4330001"
   cy="19.749001"
   id="circle3343"
   r="5.0079999"
   style="fill:#6ac045" />
	<circle
   cx="8.4650002"
   cy="6.8319998"
   id="circle3345"
   r="5.0079999"
   style="fill:#6ac045" />
	<circle
   cx="14.489"
   cy="14.743"
   id="circle3347"
   r="1.888"
   style="fill:#6ac045" />
	<g
   id="g3349">
		<path
   d="M 32.618,28.049 34.657,17.253 29.516,1.59 l 6.046,0 2.787,10.196 6.673,-10.196 6.751,0 -11.422,15.546 -2.081,10.041 -5.652,0.872 z"
   id="path3351"
   inkscape:export-xdpi="90"
   inkscape:export-ydpi="90"
   inkscape:connector-curvature="0"
   style="fill:#6ac045" />
		<path
   d="m 56.601,6.537 -9.642,0 3.765,-4.946 21.681,0 c 0,0 -3.704,2.292 -4.248,4.946 l -5.901,0 -4.044,20.64 -5.651,-0.435 4.04,-20.205 z"
   id="path3353"
   inkscape:export-xdpi="90"
   inkscape:export-ydpi="90"
   inkscape:connector-curvature="0"
   style="fill:#6ac045" />
		<path
   d="m 67.63,21.924 c 1.569,0.941 3.809,1.688 6.243,1.688 2.197,0 4.199,-1.021 4.199,-3.101 0,-1.49 -1.138,-2.472 -3.573,-3.728 -2.827,-1.531 -5.496,-3.572 -5.496,-7.027 0,-5.34 4.674,-8.597 10.442,-8.597 3.22,0 5.104,0.706 6.241,1.333 L 83.92,7.203 c -0.865,-0.47 -2.748,-1.216 -4.944,-1.177 -2.632,0 -4.008,1.335 -4.008,2.789 0,1.529 1.608,2.472 3.848,3.728 3.22,1.688 5.26,3.847 5.26,6.987 0,5.888 -4.869,8.909 -10.757,8.909 -3.688,0 -6.319,-0.94 -7.575,-1.884 l 1.886,-4.631 z"
   id="path3355"
   inkscape:export-xdpi="90"
   inkscape:export-ydpi="90"
   inkscape:connector-curvature="0"
   style="fill:#6ac045" />
	</g>
	<path
   d="m 16.488,35.367 c 1.144,0.072 30.557,-6.929 59.615,0.132 0,0 -16.943,-6.134 -37.771,-4.253 0,0 12.188,-3.197 38.858,1.588 0,0 -26.56,-8.367 -51.317,-1.128 -3.655,0.889 -10.527,3.59 -9.385,3.661 z"
   id="path3357"
   inkscape:connector-curvature="0"
   style="fill:#6ac045" />
<text
   xml:space="preserve"
   style="font-style:normal;font-weight:normal;font-size:40px;line-height:125%;font-family:sans-serif;letter-spacing:0px;word-spacing:0px;fill:#6ac045;fill-opacity:1;stroke:none;stroke-width:1px;stroke-linecap:butt;stroke-linejoin:miter;stroke-opacity:1"
   x="84"
   y="27.999001"
   id="text3365"
   sodipodi:linespacing="125%"><tspan
     sodipodi:role="line"
     id="tspan3367"
     x="84"
     y="27.999001"
     style="font-style:italic;font-variant:normal;font-weight:bold;font-stretch:normal;font-size:17.5px;line-height:125%;font-family:Arial;-inkscape-font-specification:'Arial Bold Italic';text-align:start;writing-mode:lr-tb;text-anchor:start;fill:#6ac045;fill-opacity:1">.AG</tspan></text>
</g>
</svg>

<?xml version="1.0" encoding="utf-8"?>
<!-- Generator: Adobe Illustrator 16.0.0, SVG Export Plug-In . SVG Version: 6.00 Build 0)  -->
<!DOCTYPE svg PUBLIC "-//W3C//DTD SVG 1.1//EN" "http://www.w3.org/Graphics/SVG/1.1/DTD/svg11.dtd">
<svg version="1.1" id="Layer_1" xmlns="http://www.w3.org/2000/svg" xmlns:xlink="http://www.w3.org/1999/xlink" x="0px" y="0px"
	 width="92px" height="38px" viewBox="-6 -2.501 92 38" enable-background="new -6 -2.501 92 38" xml:space="preserve">
<g>
	<path fill="#6AC045" d="M15.541,32.485c-10.379,0-18.795-8.415-18.795-18.795c0-6.895,3.716-12.921,9.253-16.191
		C-0.892,0.624-5.687,7.555-5.687,15.614c0,10.981,8.902,19.885,19.885,19.885c10.477,0,19.057-8.106,19.824-18.387
		C32.412,25.857,24.752,32.485,15.541,32.485z"/>
	<circle fill="#6AC045" cx="19.497" cy="23.161" r="5.006"/>
	<circle fill="#6AC045" cx="6.433" cy="19.749" r="5.008"/>
	<circle fill="#6AC045" cx="8.465" cy="6.832" r="5.008"/>
	<circle fill="#6AC045" cx="14.489" cy="14.743" r="1.888"/>
	<g>
		<path fill="#6AC045" d="M32.618,28.049l2.039-10.796L29.516,1.59h6.046l2.787,10.196L45.022,1.59h6.751L40.351,17.136
			L38.27,27.177L32.618,28.049z"/>
		<path fill="#6AC045" d="M56.601,6.537h-9.642l3.765-4.946h21.681c0,0-3.704,2.292-4.248,4.946h-5.901l-4.044,20.64l-5.651-0.435
			L56.601,6.537z"/>
		<path fill="#6AC045" d="M67.63,21.924c1.569,0.941,3.809,1.688,6.243,1.688c2.197,0,4.199-1.021,4.199-3.101
			c0-1.49-1.138-2.472-3.573-3.728c-2.827-1.531-5.496-3.572-5.496-7.027c0-5.34,4.674-8.597,10.442-8.597
			c3.22,0,5.104,0.706,6.241,1.333l-1.766,4.711c-0.865-0.47-2.748-1.216-4.944-1.177c-2.632,0-4.008,1.335-4.008,2.789
			c0,1.529,1.608,2.472,3.848,3.728c3.22,1.688,5.26,3.847,5.26,6.987c0,5.888-4.869,8.909-10.757,8.909
			c-3.688,0-6.319-0.94-7.575-1.884L67.63,21.924z"/>
	</g>
	<path fill="#6AC045" d="M16.488,35.367c1.144,0.072,30.557-6.929,59.615,0.132c0,0-16.943-6.134-37.771-4.253
		c0,0,12.188-3.197,38.858,1.588c0,0-26.56-8.367-51.317-1.128C22.218,32.595,15.346,35.296,16.488,35.367z"/>
</g>
</svg>
